icons/1_Primary/Amazon.svg

<svg xmlns="http://www.w3.org/2000/svg" width="1024" height="1024" fill="none">
   <g clip-path="url(#a)">
      <path fill="#F8C18C" d="M512 1024c282.77 0 512-229.23 512-512S794.77 0 512 0 0 229.23 0 512s229.23 512 512 512Z"/>
      <path fill="#fff" d="M256.9 640.5c1.5-2.5 4-2.6 7.4-.5 77.6 45 162.1 67.6 253.3 67.6 60.9 0 121-11.4 180.3-34l6.7-3c2.9-1.3 5-2.1 6.3-2.8 4.8-1.9 8.3-1 11.2 2.8 2.6 3.7 1.9 7.2-2.6 10.2-5.5 4.1-12.8 8.8-21.5 14-26.5 15.9-56.3 28.1-89.3 36.8-32.7 8.7-65 13-96.4 13-48.3 0-94.1-8.5-137.3-25.3-43.1-16.9-81.5-40.8-115.9-71.5-2.1-1.6-3.2-3.2-3.2-4.7 0-1 .4-1.9 1.1-2.8l-.1.2Zm140.2-132.7c0-21.4 5.3-39.8 15.9-55 10.6-15.2 25-26.7 43.5-34.5 17-7.1 37.5-12.3 62.1-15.4 8.3-1 22-2.2 41-3.7v-7.9c0-19.8-2.2-33.3-6.4-40-6.4-9.2-16.6-13.9-30.7-13.9h-3.9c-10.2 1-19.1 4.2-26.6 9.8-7.5 5.8-12.3 13.4-14.4 23.4-1.3 6.4-4.4 9.9-9.3 10.9l-53.8-6.7c-5.3-1.3-7.9-3.8-7.9-8.3 0-1 .1-1.9.5-3.2 5.3-27.5 18.2-48 38.8-61.5 20.8-13.1 44.8-20.8 72.4-22.4h11.5c35.2 0 63.1 9.3 83 27.5 2.9 3.2 5.8 6.4 8.6 10.2 2.6 3.5 4.8 6.7 6 9.6 1.6 2.9 3.2 7 4.2 12.2 1.3 5.4 2.2 9 2.9 10.9.6 2.2 1.3 6.4 1.6 13.1.2 6.7.4 10.5.4 11.8v112.7c0 8 1.3 15.4 3.5 22.1 2.2 6.7 4.5 11.5 6.7 14.4l10.9 14.4c1.9 2.9 2.9 5.5 2.9 7.7 0 2.6-1.3 4.8-3.8 6.7-25.6 22.4-39.7 34.6-41.9 36.5-3.5 2.9-8 3.2-13.4 1-4.2-3.5-8-7.1-11.2-10.6l-6.6-7.4c-1.3-1.6-3.5-4.5-6.8-9l-6.4-9.3c-17.3 18.9-34.2 30.7-51.2 35.5-10.5 3.2-23.3 4.8-39.1 4.8-23.7 0-43.5-7.3-58.9-22.1-15.4-14.7-23-35.5-23-62.7l-1.1-1.6Zm80-9.4c0 12.1 3 21.8 9.1 29.1 6.1 7.3 14.4 10.9 24.7 10.9 1 0 2.3-.1 4.2-.4 1.9-.3 2.9-.5 3.5-.5 13.1-3.4 23-11.8 30.4-25.1 3.5-6 6.1-12.4 7.7-19.4 1.9-6.8 2.6-12.6 2.9-17.1.3-4.2.3-11.5.3-21.4V443c-17.9 0-31.7 1.3-41 3.8-27.2 7.7-41 25-41 51.9l-.7-.4v.1h-.1Zm195.6 150c.6-1.3 1.6-2.3 2.8-3.6 7.7-5.2 15.2-8.8 22.4-10.7 11.7-2.8 23.3-4.7 34.4-5.1 3-.3 6 0 8.8.6 13.9 1.3 22.4 3.6 25 7 1.3 1.9 1.9 4.9 1.9 8.3v3.2c0 10.9-3 23.7-8.9 38.4s-14.2 26.6-24.7 35.9c-1.6 1.3-3 1.9-4.2 1.9-.6 0-1.3 0-1.9-.3-1.9-.9-2.3-2.6-1.4-5.1 11.5-26.9 17.2-45.7 17.2-56.3 0-3.2-.6-5.8-1.9-7.3-3.1-3.5-11.7-5.5-26.1-5.5-5.2 0-11.4.3-18.6 1-7.7 1-14.9 1.9-21.3 2.9-1.9 0-3.2-.3-3.8-.9-.6-.6-.8-1-.4-1.6 0-.4.1-.6.4-1.3v-1.3l.3-.2Z"/>
   </g>
   <defs>
      <clipPath id="a">
         <path fill="#fff" d="M0 0h1024v1024H0z"/>
      </clipPath>
   </defs>
</svg>

<svg width="1024" height="1024" viewBox="0 0 1024 1024" fill="none" xmlns="http://www.w3.org/2000/svg">
<g clip-path="url(#clip0_2_1476)">
<path d="M512 1024C794.77 1024 1024 794.77 1024 512C1024 229.23 794.77 0 512 0C229.23 0 0 229.23 0 512C0 794.77 229.23 1024 512 1024Z" fill="#F8C18C"/>
<path d="M256.9 640.5C258.4 638 260.9 637.9 264.3 640C341.9 685 426.4 707.6 517.6 707.6C578.5 707.6 638.6 696.2 697.9 673.6L704.6 670.6C707.5 669.3 709.6 668.5 710.9 667.8C715.7 665.9 719.2 666.8 722.1 670.6C724.7 674.3 724 677.8 719.5 680.8C714 684.9 706.7 689.6 698 694.8C671.5 710.7 641.7 722.9 608.7 731.6C576 740.3 543.7 744.6 512.3 744.6C464 744.6 418.2 736.1 375 719.3C331.9 702.4 293.5 678.5 259.1 647.8C257 646.2 255.9 644.6 255.9 643.1C255.9 642.1 256.3 641.2 257 640.3L256.9 640.5ZM397.1 507.8C397.1 486.4 402.4 468 413 452.8C423.6 437.6 438 426.1 456.5 418.3C473.5 411.2 494 406 518.6 402.9C526.9 401.9 540.6 400.7 559.6 399.2V391.3C559.6 371.5 557.4 358 553.2 351.3C546.8 342.1 536.6 337.4 522.5 337.4H518.6C508.4 338.4 499.5 341.6 492 347.2C484.5 353 479.7 360.6 477.6 370.6C476.3 377 473.2 380.5 468.3 381.5L414.5 374.8C409.2 373.5 406.6 371 406.6 366.5C406.6 365.5 406.7 364.6 407.1 363.3C412.4 335.8 425.3 315.3 445.9 301.8C466.7 288.7 490.7 281 518.3 279.4H529.8C565 279.4 592.9 288.7 612.8 306.9C615.7 310.1 618.6 313.3 621.4 317.1C624 320.6 626.2 323.8 627.4 326.7C629 329.6 630.6 333.7 631.6 338.9C632.9 344.3 633.8 347.9 634.5 349.8C635.1 352 635.8 356.2 636.1 362.9C636.3 369.6 636.5 373.4 636.5 374.7V487.4C636.5 495.4 637.8 502.8 640 509.5C642.2 516.2 644.5 521 646.7 523.9L657.6 538.3C659.5 541.2 660.5 543.8 660.5 546C660.5 548.6 659.2 550.8 656.7 552.7C631.1 575.1 617 587.3 614.8 589.2C611.3 592.1 606.8 592.4 601.4 590.2C597.2 586.7 593.4 583.1 590.2 579.6L583.6 572.2C582.3 570.6 580.1 567.7 576.8 563.2L570.4 553.9C553.1 572.8 536.2 584.6 519.2 589.4C508.7 592.6 495.9 594.2 480.1 594.2C456.4 594.2 436.6 586.9 421.2 572.1C405.8 557.4 398.2 536.6 398.2 509.4L397.1 507.8ZM477.1 498.4C477.1 510.5 480.1 520.2 486.2 527.5C492.3 534.8 500.6 538.4 510.9 538.4C511.9 538.4 513.2 538.3 515.1 538C517 537.7 518 537.5 518.6 537.5C531.7 534.1 541.6 525.7 549 512.4C552.5 506.4 555.1 500 556.7 493C558.6 486.2 559.3 480.4 559.6 475.9C559.9 471.7 559.9 464.4 559.9 454.5V443C542 443 528.2 444.3 518.9 446.8C491.7 454.5 477.9 471.8 477.9 498.7L477.2 498.3V498.4H477.1ZM672.7 648.4C673.3 647.1 674.3 646.1 675.5 644.8C683.2 639.6 690.7 636 697.9 634.1C709.6 631.3 721.2 629.4 732.3 629C735.3 628.7 738.3 629 741.1 629.6C755 630.9 763.5 633.2 766.1 636.6C767.4 638.5 768 641.5 768 644.9V648.1C768 659 765 671.8 759.1 686.5C753.2 701.2 744.9 713.1 734.4 722.4C732.8 723.7 731.4 724.3 730.2 724.3C729.6 724.3 728.9 724.3 728.3 724C726.4 723.1 726 721.4 726.9 718.9C738.4 692 744.1 673.2 744.1 662.6C744.1 659.4 743.5 656.8 742.2 655.3C739.1 651.8 730.5 649.8 716.1 649.8C710.9 649.8 704.7 650.1 697.5 650.8C689.8 651.8 682.6 652.7 676.2 653.7C674.3 653.7 673 653.4 672.4 652.8C671.8 652.2 671.6 651.8 672 651.2C672 650.8 672.1 650.6 672.4 649.9V648.6L672.7 648.4Z" fill="white"/>
</g>
<defs>
<clipPath id="clip0_2_1476">
<rect width="1024" height="1024" fill="white"/>
</clipPath>
</defs>
</svg>
